ir/green-truck.svg

<svg viewBox="0 0 24 24" stroke-width="1.5" fill="none" xmlns="http://www.w3.org/2000/svg" height="1em" width="1em">
  <path d="M7 17C8.10457 17 9 16.1046 9 15C9 13.8954 8.10457 13 7 13C5.89543 13 5 13.8954 5 15C5 16.1046 5.89543 17 7 17Z" stroke="currentColor" stroke-miterlimit="1.5" stroke-linecap="round" stroke-linejoin="round"/>
  <path d="M14 15V4.6C14 4.26863 13.7314 4 13.4 4H2.6C2.26863 4 2 4.26863 2 4.6V14.4C2 14.7314 2.26863 15 2.6 15H4.65" stroke="currentColor" stroke-linecap="round"/>
  <path d="M13.9998 15H9.0498" stroke="currentColor" stroke-linecap="round"/>
  <path d="M14 7H19.6101C19.8472 7 20.0621 7.13964 20.1584 7.35632L21.4483 10.2586C21.4824 10.3354 21.5 10.4184 21.5 10.5023V12" stroke="currentColor" stroke-linecap="round"/>
  <path d="M17 23C17 23 17.9 19.8824 20 18" stroke="currentColor" stroke-linecap="round" stroke-linejoin="round"/>
  <path d="M19.8022 21.4245L19.6677 21.4372C17.9758 21.5961 16.469 20.3541 16.3021 18.663C16.1353 16.9719 17.3715 15.4721 19.0634 15.3131L22.049 15.0326C22.2406 15.0146 22.4111 15.1552 22.43 15.3466L22.6847 17.9276C22.8589 19.6929 21.5683 21.2586 19.8022 21.4245Z" stroke="currentColor" stroke-linecap="round" stroke-linejoin="round"/>
</svg>

<svg viewBox="0 0 24 24" stroke-width="1.5" fill="none" xmlns="http://www.w3.org/2000/svg" height="1em" width="1em">
  <path d="M7 17a2 2 0 1 0 0-4 2 2 0 0 0 0 4Z" stroke="currentColor" stroke-miterlimit="1.5" stroke-linecap="round" stroke-linejoin="round"/>
  <path d="M14 15V4.6a.6.6 0 0 0-.6-.6H2.6a.6.6 0 0 0-.6.6v9.8a.6.6 0 0 0 .6.6h2.05M14 15H9.05M14 7h5.61a.6.6 0 0 1 .548.356l1.29 2.903a.6.6 0 0 1 .052.243V12" stroke="currentColor" stroke-linecap="round"/>
  <path d="M17 23s.9-3.118 3-5" stroke="currentColor" stroke-linecap="round" stroke-linejoin="round"/>
  <path d="m19.802 21.424-.134.013a3.094 3.094 0 0 1-3.366-2.774 3.06 3.06 0 0 1 2.761-3.35l2.986-.28a.35.35 0 0 1 .381.314l.255 2.58a3.194 3.194 0 0 1-2.883 3.497Z" stroke="currentColor" stroke-linecap="round" stroke-linejoin="round"/>
</svg>
